X: 106102
T: The DEIL AMONG THE TAILORS
Q:"Reel."
R: Reel.
%R:reel
B: James Kerr "Merry Melodies" v.1 p.6 s.1 #2
Z: 2017 John Chambers <jc:trillian.mit.edu>
M: C
L: 1/8
K: A
g |\
a2eg a2eg | a2(ea) fedc |\
dfBf dfBf | dfba gfeg |\
a2ea (ga)ea | gaea fedc |\
defd ecBA | E2G2 A2 |]
e2 |\
ceAe ceAe | ceag fedc |\
dfBf dfBf | dfba gfed |\
ceAe ceAe | ceag fedc |\
defd ecBA | E2G2 A2 |]

%%sep 1 1 500
%%sep 1 1 500

